modules/feathericon/icons/pocket.svg

<?xml version="1.0" encoding="UTF-8"?>
<svg width="24px" height="24px" viewBox="0 0 24 24" version="1.1" xmlns="http://www.w3.org/2000/svg" xmlns:xlink="http://www.w3.org/1999/xlink">
    <!-- Generator: sketchtool 52.2 (67145) - http://www.bohemiancoding.com/sketch -->
    <title>pocket</title>
    <desc>Created with sketchtool.</desc>
    <g id="brand" stroke="none" stroke-width="1" fill="none" fill-rule="evenodd">
        <g id="pocket" fill="#000000" fill-rule="nonzero">
            <path d="M21.9019676,4.19405805 C21.6419549,3.48002334 20.9569216,3 20.1968847,3 L20.1868842,3 L18.4658005,3 L3.81308815,3 C3.06605183,3 2.38501872,3.47002285 2.11900579,4.17005689 C2.04000194,4.378067 2,4.5940775 2,4.8140882 L2,10.8493816 L2.06900335,12.04944 C2.35901745,14.7795727 3.77608635,17.1646887 5.96819292,18.8277695 C6.00719482,18.857771 6.04719676,18.8867724 6.08719871,18.9167738 L6.11219992,18.9347747 C7.28725705,19.7938165 8.60332104,20.3758448 10.02239,20.6618587 C10.6774219,20.7938651 11.3474544,20.8618684 12.0134868,20.8618684 C12.6285167,20.8618684 13.2455467,20.8048656 13.8525762,20.6918601 C13.9255798,20.6778595 13.9975833,20.6638588 14.0715869,20.647858 C14.0915879,20.6438578 14.1135889,20.6358574 14.13559,20.6248569 C15.4946561,20.3278424 16.7567174,19.7608149 17.8887725,18.9337747 L17.9137737,18.9157738 C17.9537756,18.8867724 17.9937776,18.857771 18.0327795,18.8267695 C20.224886,17.1626886 21.6419549,14.7775726 21.930969,12.0484399 L21.9999723,10.8483816 L21.9999723,4.8140882 C22.0009724,4.60507803 21.9749711,4.39806797 21.9019676,4.19405805 Z M17.6667617,10.4813637 L12.962533,14.9935831 C12.69652,15.2475954 12.3545034,15.3756017 12.0134868,15.3756017 C11.6714702,15.3756017 11.3294536,15.2475954 11.0644407,14.9935831 L6.35921193,10.4813637 C5.81218534,9.95733825 5.79418446,9.08929605 6.31820994,8.54226945 C6.84223542,7.99524286 7.71027762,7.97724198 8.25730421,8.50226751 L12.0134868,12.1034426 L15.7686694,8.50226751 C16.315696,7.97824203 17.1837382,7.9962429 17.7077637,8.54226945 C18.2307891,9.08929605 18.2127882,9.9563382 17.6667617,10.4813637 Z" id="Shape"></path>
        </g>
    </g>
</svg>

<svg width="24" height="24" viewBox="0 0 24 24" xmlns="http://www.w3.org/2000/svg"><path d="M21.902 4.194A1.82 1.82 0 0 0 20.197 3H3.813A1.823 1.823 0 0 0 2 4.814v6.035l.069 1.2c.29 2.73 1.707 5.116 3.9 6.779.038.03.078.059.118.089l.025.018a9.897 9.897 0 0 0 3.91 1.727 10.06 10.06 0 0 0 4.05-.014.261.261 0 0 0 .064-.023 9.906 9.906 0 0 0 3.753-1.691l.025-.018c.04-.03.08-.058.119-.09 2.192-1.663 3.609-4.048 3.898-6.778l.069-1.2V4.814a1.792 1.792 0 0 0-.098-.62zm-4.235 6.287l-4.704 4.513a1.372 1.372 0 0 1-1.899 0L6.36 10.48a1.371 1.371 0 1 1 1.898-1.979l3.756 3.601 3.756-3.6a1.372 1.372 0 0 1 1.898 1.978z" fill="#000" fill-rule="nonzero"/></svg>
